images/icons/arrow-default-border.svg

<svg width="15" height="30" viewBox="0 0 15 30" fill="none" xmlns="http://www.w3.org/2000/svg">
<path d="M14.4342 14.3484L2.77288 0.972359C2.57821 0.731024 2.34088 0.591024 2.07021 0.561691C1.80354 0.52569 1.53688 0.603024 1.32488 0.769691C0.888877 1.11502 0.814209 1.74969 1.16621 2.19902L12.3302 15.0097L1.25288 27.7217C1.04088 27.943 0.936876 28.1964 0.940876 28.475C0.944876 28.743 1.05688 28.995 1.25154 29.183C1.44088 29.3657 1.68888 29.4644 1.95688 29.4644H1.96888H1.97154C2.23954 29.459 2.49021 29.3484 2.68754 29.1444L14.4302 15.671C14.6075 15.471 14.6982 15.2004 14.6809 14.9257C14.6609 14.7097 14.5742 14.511 14.4342 14.3484Z" fill="#778F56"/>
</svg>

<svg width="15" height="30" fill="none" xmlns="http://www.w3.org/2000/svg"><path d="M14.434 14.348L2.773.972C2.578.731 2.34.591 2.07.562a.99.99 0 00-.745.208c-.436.345-.51.98-.159 1.429l11.164 12.81L1.253 27.723a1.041 1.041 0 00-.312.753 1.005 1.005 0 001.016.989h.015c.268-.005.518-.116.716-.32L14.43 15.671c.178-.2.268-.47.25-.745a1.025 1.025 0 00-.246-.578z" fill="#778F56"/></svg>
